X: 36426
T: Seanamhac Tube Station
R: jig
M: 6/8
K: Adorian
|:AGE DEG|ABd ~e3|edB dBG|AGE DEG|
ABA AGE|ABd ~e3|edB dBG|1 A2B c2B:|2 ABA ABd||
|:~e3 edB|~d3 dBd|edB dBG|AGE DEG|
[1 ~e3 edB|~d3 age|edB dBG|ABA ABd:|
[2 AGE AGE|AGE edB|edB dBG|A2B c2B||

